!!!!SEGMENT: pl-cz--iii-563--001-004_raszek-waclaw--missa-ex-dis-et-incarnatus.krn
!!!cenid: 17xx:1073
!!!COM: Raszek, Wacław
!!!COM-rismID: pe30020314
!!!CDT: <1848->1848
!!!CNT:
!!!OPR: Missa ex Dis
!!!OTL: Et incarnatus
!!!OMV: 004
!!!PDT:
!!!AGN: Sacred; Mass
!!!YEC: Copyright 2022 Narodowy Instytut Fryderyka Chopina (https://polishscores.org)
!!!YEM: License CC-BY-4.0 (https://creativecommons.org/licenses/by/4.0)
!!!SMS-siglum: PL-CZ
!!!SMS-shelfmark: III-563
!!!SMS-shelfwork: 001-004 M
!!!SMS-variant:
!!!SMS-altvar:
!!!NIFC-rismSourceID: 300001050
!!!NIFC-rismChildID: 300001050
!!!NIFC-islandoraID: pl-cz:39135
!!!URL-pdf-islandora: https://repozytorium.nifc.pl/islandora/object/pl-cz%3A39135/datastream/PDF/view
!!!URL-scan: https://polish.musicsources.pl/pl/lokalizacje/galeria/rekopisy/6951/1 @EN{Scan on Polish Music Sources Website} @PL{Skany w portalu Dziedzictwo Muzyki Polskiej w otwartym dostępie}
!!!IIIF:
!!!ONB-nifc: UWAGA: części Mszy: Kyrie, Gloria, Credo, Et incarnatus, Et resurrexit, Sanctus, Pleni sunt, Benedictus, Agnus Dei, Dona nobis
!!!OMD: adagio
!!!AIN: 1 alto 1 bass 1 clars 1 cor 2 empty 1 organ 1 tenor 1 viola 2 violn 1 vox
!!!key:
**kern	**dynam	**kern	**dynam	**kern	**dynam	**kern	**dynam	**kern	**text	**dynam	**kern	**text	**dynam	**kern	**text	**dynam	**kern	**text	**dynam	**kern	**dynam	**kern	**dynam	**kern	**dynam	**kern
*part12	*	*part11	*	*part10	*	*part9	*	*part8	*	*	*part7	*	*	*part6	*	*	*part5	*	*	*part4	*	*part3	*	*part2	*	*part1
*staff12	*	*staff11	*	*staff10	*	*staff9	*	*staff8	*	*	*staff7	*	*	*staff6	*	*	*staff5	*	*	*staff4	*	*staff3	*	*staff2	*	*staff1
*Iorgan	*	*Iviola	*	*Ivioln	*	*Ivioln	*	*Ibass	*	*	*Itenor	*	*	*Ialto	*	*	*Ivox	*	*	*Icor	*	*Iempty	*	*Iclars	*	*Iempty
*I"Organo.	*	*I"Alto Viola	*	*I"Violino Secondo.	*	*I"Violino Primo.	*	*I"Basso.	*	*	*I"Tenore.	*	*	*I"Alto.	*	*	*I"Canto.	*	*	*I"Corno Secundo in Dis	*	*I"Cornu Primo in Dis.	*	*I"Clarinetto Secondo in B.	*	*I"Clarinetto Primo. in B.
*I'Org.	*	*I'Vla	*	*I'Vn II	*	*I'Vn I	*	*I'B.	*	*	*I'T.	*	*	*I'A.	*	*	*I'C.	*	*	*I'C. II in Dis	*	*I'C. 1 in Dis	*	*I'Cl. 2 in B.	*	*I'Cl. 1 in B
*clefF4	*	*clefC3	*	*clefG2	*	*clefG2	*	*clefF4	*	*	*clefC4	*	*	*clefC3	*	*	*clefC1	*	*	*clefG2	*	*clefG2	*	*clefG2	*	*clefG2
*	*	*	*	*	*	*	*	*	*	*	*	*	*	*	*	*	*	*	*	*ITrd-2c-3	*	*ITrd5c9	*	*ITrd1c2	*	*ITrd1c2
*k[b-e-a-]	*	*k[b-e-a-]	*	*k[b-e-a-]	*	*k[b-e-a-]	*	*k[b-e-a-]	*	*	*k[b-e-a-]	*	*	*k[b-e-a-]	*	*	*k[b-e-a-]	*	*	*k[b-e-a-]	*	*k[b-e-a-]	*	*k[b-e-a-]	*	*k[b-e-a-]
*E-:	*	*E-:	*	*E-:	*	*E-:	*	*E-:	*	*	*E-:	*	*	*E-:	*	*	*E-:	*	*	*	*	*	*	*E-:	*	*E-:
*M3/4	*	*M3/4	*	*M3/4	*	*M3/4	*	*M3/4	*	*	*M3/4	*	*	*M3/4	*	*	*M3/4	*	*	*M3/4	*	*M3/4	*	*M3/4	*	*M3/4
=1	=1	=1	=1	=1	=1	=1	=1	=1	=1	=1	=1	=1	=1	=1	=1	=1	=1	=1	=1	=1	=1	=1	=1	=1	=1	=1
*	*	*2\right	*	*2\right	*	*2\right	*	*	*	*	*	*	*	*	*	*	*	*	*	*	*	*	*	*	*	*
!	!	!	!	!	!	!	!	!	!	!	!	!	!	!	!	!	!	!	!	!	!	!	!	!	!	!LO:TX:t=P:problem=w źródle brak partii Clarinetto Primo
!	!	!LO:TX:t=P:p=p.:problem	!LO:DY:a	!LO:TX:t=P:p=po:problem	!	!	!	!	!	!	!	!	!	!LO:TX:t=P:problem=przy kluczu górne "as"	!	!	!	!	!	!	!	!	!	!	!	!
2.r	.	4c\	p	4e-/	p	8r	.	0.r	.	.	0.r	.	.	0.r	.	.	0.r	.	.	0.r	.	0.r	.	0.r	.	2.ryy
!	!	!	!	!	!	!LO:TX:t=P:p=p.:global:problem	!LO:DY:a	!	!	!	!	!	!	!	!	!	!	!	!	!	!	!	!	!	!	!
.	.	.	.	.	.	8gg\L	p	.	.	.	.	.	.	.	.	.	.	.	.	.	.	.	.	.	.	.
.	.	4r	.	4r	.	(8ff\	.	.	.	.	.	.	.	.	.	.	.	.	.	.	.	.	.	.	.	.
.	.	.	.	.	.	8ee-\)	.	.	.	.	.	.	.	.	.	.	.	.	.	.	.	.	.	.	.	.
!	!	!LO:TX:t=P:problem=w źródleadnotacja "C minor"	!	!	!	!	!	!	!	!	!	!	!	!	!	!	!	!	!	!	!	!	!	!	!	!
.	.	4r	.	4r	.	(8dd\	.	.	.	.	.	.	.	.	.	.	.	.	.	.	.	.	.	.	.	.
.	.	.	.	.	.	8cc\J)	.	.	.	.	.	.	.	.	.	.	.	.	.	.	.	.	.	.	.	.
=2	=2	=2	=2	=2	=2	=2	=2	=2	=2	=2	=2	=2	=2	=2	=2	=2	=2	=2	=2	=2	=2	=2	=2	=2	=2	=2
*	*	*tremolo	*	*tremolo	*	*	*	*	*	*	*	*	*	*	*	*	*	*	*	*	*	*	*	*	*	*
2.r	.	8c\L	.	8e-/L	.	8cc\L	.	.	.	.	.	.	.	.	.	.	.	.	.	.	.	.	.	.	.	2.ryy
.	.	8c\	.	8e-/	.	8ccc\J	.	.	.	.	.	.	.	.	.	.	.	.	.	.	.	.	.	.	.	.
.	.	8c\	.	8e-/	.	4.ccc\	.	.	.	.	.	.	.	.	.	.	.	.	.	.	.	.	.	.	.	.
.	.	8c\	.	8e-/	.	.	.	.	.	.	.	.	.	.	.	.	.	.	.	.	.	.	.	.	.	.
.	.	8c\	.	8e-/	.	.	.	.	.	.	.	.	.	.	.	.	.	.	.	.	.	.	.	.	.	.
.	.	8c\J	.	8e-/J	.	8gg\	.	.	.	.	.	.	.	.	.	.	.	.	.	.	.	.	.	.	.	.
=3	=3	=3	=3	=3	=3	=3	=3	=3	=3	=3	=3	=3	=3	=3	=3	=3	=3	=3	=3	=3	=3	=3	=3	=3	=3	=3
.	.	.	.	.	.	8qqbb-/	.	.	.	.	.	.	.	.	.	.	.	.	.	.	.	.	.	.	.	.
2.r	.	8Bn/L	.	8d/L	.	8aa-\L	.	.	.	.	.	.	.	.	.	.	.	.	.	.	.	.	.	.	.	2.ryy
.	.	8Bn/	.	8d/	.	16gg\L	.	.	.	.	.	.	.	.	.	.	.	.	.	.	.	.	.	.	.	.
.	.	.	.	.	.	16aa-\JJ	.	.	.	.	.	.	.	.	.	.	.	.	.	.	.	.	.	.	.	.
.	.	8Bn/	.	8d/	.	4gg\	.	.	.	.	.	.	.	.	.	.	.	.	.	.	.	.	.	.	.	.
.	.	8Bn/	.	8d/	.	.	.	.	.	.	.	.	.	.	.	.	.	.	.	.	.	.	.	.	.	.
.	.	8Bn/	.	8d/	.	16gg\LL	.	.	.	.	.	.	.	.	.	.	.	.	.	.	.	.	.	.	.	.
.	.	.	.	.	.	16ff\	.	.	.	.	.	.	.	.	.	.	.	.	.	.	.	.	.	.	.	.
.	.	8Bn/J	.	8d/J	.	16ee-\	.	.	.	.	.	.	.	.	.	.	.	.	.	.	.	.	.	.	.	.
.	.	.	.	.	.	16ff\JJ	.	.	.	.	.	.	.	.	.	.	.	.	.	.	.	.	.	.	.	.
=4	=4	=4	=4	=4	=4	=4	=4	=4	=4	=4	=4	=4	=4	=4	=4	=4	=4	=4	=4	=4	=4	=4	=4	=4	=4	=4
2.r	.	8c\L	.	8e-/L	.	16ff\LL	.	.	.	.	.	.	.	.	.	.	.	.	.	.	.	.	.	.	.	2.ryy
.	.	.	.	.	.	16ee-\	.	.	.	.	.	.	.	.	.	.	.	.	.	.	.	.	.	.	.	.
.	.	8c\	.	8e-/	.	16dd\	.	.	.	.	.	.	.	.	.	.	.	.	.	.	.	.	.	.	.	.
.	.	.	.	.	.	16cc\JJ	.	.	.	.	.	.	.	.	.	.	.	.	.	.	.	.	.	.	.	.
.	.	8c\	.	8e-/	.	8cc\L	.	.	.	.	.	.	.	.	.	.	.	.	.	.	.	.	.	.	.	.
.	.	8c\	.	8e-/	.	8ee-\	.	.	.	.	.	.	.	.	.	.	.	.	.	.	.	.	.	.	.	.
.	.	8c\	.	8e-/	.	8f#X\	.	.	.	.	.	.	.	.	.	.	.	.	.	.	.	.	.	.	.	.
.	.	8c\J	.	8e-/J	.	8f#\J	.	.	.	.	.	.	.	.	.	.	.	.	.	.	.	.	.	.	.	.
*	*	*Xtremolo	*	*Xtremolo	*	*	*	*	*	*	*	*	*	*	*	*	*	*	*	*	*	*	*	*	*	*
=5	=5	=5	=5	=5	=5	=5	=5	=5	=5	=5	=5	=5	=5	=5	=5	=5	=5	=5	=5	=5	=5	=5	=5	=5	=5	=5
!	!	!	!	!	!	!	!	!	!	!	!	!	!	!	!	!	!	!	!	!	!	!LO:TX:t=P:p=p:problem	!LO:DY:a	!	!	!
!	!	!	!	!	!	!	!	!	!	!	!	!	!	!LO:TX:t=P:p=p.:problem	!	!	!	!	!	!	!	!	!	!	!	!
!	!	!	!	!	!	!	!	!	!	!	!	!	!	!LO:TX:t=P:problem="w źródle duże E" przed kluczem, na początku systemu	!	!	!	!	!	!LO:TX:t=P:p=p:problem	!LO:DY:a	!	!	!	!	!
2.r	.	4Bn/	.	4d/	.	4g/	.	2.r	.	.	2.r	.	.	4g\	Et	p	2.r	.	.	4g/	p	4g\	p	2.r	.	2.ryy
.	.	4r	.	4r	.	4r	.	.	.	.	.	.	.	4g\	in-	.	.	.	.	4g/	.	4g\	.	.	.	.
.	.	4r	.	4r	.	4r	.	.	.	.	.	.	.	4g\	-car-	.	.	.	.	4g/	.	4g\	.	.	.	.
=6	=6	=6	=6	=6	=6	=6	=6	=6	=6	=6	=6	=6	=6	=6	=6	=6	=6	=6	=6	=6	=6	=6	=6	=6	=6	=6
*2\right	*	*	*	*	*	*	*	*2\right	*	*	*2\right	*	*	*2\right	*	*	*2\right	*	*	*2\right	*	*2\right	*	*2\right	*	*
*tremolo	*	*tremolo	*	*tremolo	*	*tremolo	*	*	*	*	*	*	*	*	*	*	*	*	*	*	*	*	*	*	*	*
!	!	!	!	!	!	!	!	!	!	!	!LO:TX:t=P:problem="E" duże przed kluczem, na początku systemu	!	!	!	!	!	!	!	!	!	!	!	!	!	!	!
!	!LO:DY:a	!	!	!	!	!	!	!LO:TX:t=P:problem="E" duże przed kluczem, na początku systemu	!	!	!LO:TX:t=P:p=p.:problem	!	!	!	!	!	!LO:TX:t=P:p=p:problem	!	!	!	!	!	!	!	!	!
8F\L	p	8d\L	<	8g/L	<	8bn\L	<	4F\	Et	.	4d\	Et	p	2g\	-na-	.	4bn\	Et	p	2.g/	.	2.g\	.	2.bX\	.	2.ryy
8F\	.	8d\	.	8g/	.	8bn\	.	.	.	.	.	.	.	.	.	.	.	.	.	.	.	.	.	.	.	.
8F\	.	8d\	.	8g/	.	8bn\	.	4F\	in-	.	4d\	in-	.	.	.	.	4b\	in-	.	.	.	.	.	.	.	.
8F\	.	8d\	.	8g/	.	8bn\	.	.	.	.	.	.	.	.	.	.	.	.	.	.	.	.	.	.	.	.
8F\	.	8d\	.	8g/	.	8bn\	.	4F\	-car-	.	4d\	-car-	.	4g\	-tus	.	4b\	-car-	.	.	.	.	.	.	.	.
8F\J	.	8d\J	.	8g/J	.	8bn\J	.	.	.	.	.	.	.	.	.	.	.	.	.	.	.	.	.	.	.	.
*	*	*	*	*	*	*Xtremolo	*	*	*	*	*	*	*	*	*	*	*	*	*	*	*	*	*	*	*	*
=7	=7	=7	=7	=7	=7	=7	=7	=7	=7	=7	=7	=7	=7	=7	=7	=7	=7	=7	=7	=7	=7	=7	=7	=7	=7	=7
8E-\L	.	8e-\L	.	8g/L	.	8b-\L	.	8E-\	-na-	.	8c\	-na-	.	2g\	est	.	8b-\	-na-	.	2.g/	.	2.g\	.	2.cc\	.	2.ryy
8E-\	.	8e-\	.	8g/	.	8cc\J	.	8E-\	-tus	.	8G/	-tus	.	.	.	.	8cc\	-tus	.	.	.	.	.	.	.	.
*	*	*	*	*	*	*tremolo	*	*	*	*	*	*	*	*	*	*	*	*	*	*	*	*	*	*	*	*
8E-\	.	8e-\	.	8g/	.	8cc\L	.	2E-\	e(st)	.	2G/	e(st)	.	.	.	.	2cc\	e(st)	.	.	.	.	.	.	.	.
8E-\	.	8e-\	.	8g/	.	8cc\	.	.	.	.	.	.	.	.	.	.	.	.	.	.	.	.	.	.	.	.
8E-\	.	8e-\	.	8g/	.	8cc\	.	.	.	.	.	.	.	4g\	de	.	.	.	.	.	.	.	.	.	.	.
8E-\J	.	8e-\J	.	8g/J	.	8cc\J	.	.	.	.	.	.	.	.	.	.	.	.	.	.	.	.	.	.	.	.
=8	=8	=8	=8	=8	=8	=8	=8	=8	=8	=8	=8	=8	=8	=8	=8	=8	=8	=8	=8	=8	=8	=8	=8	=8	=8	=8
8BBn/L	.	8Bn/L	.	8g/L	.	8dd\L	.	4BBn/	de	.	4Bn\	de	.	4.g\	Spi-	.	4dd\	de	.	2.g/	.	2.g\	.	2.dd\	.	2.ryy
8BBn/	.	8Bn/	.	8g/	.	8dd\	.	.	.	.	.	.	.	.	.	.	.	.	.	.	.	.	.	.	.	.
8BBn/	.	8Bn/	.	8g/	.	8dd\	.	4BB/	Spi-	.	4B\	Spi-	.	.	.	.	4dd\	Spi-	.	.	.	.	.	.	.	.
8BBn/	.	8Bn/	.	8g/	.	8dd\	.	.	.	.	.	.	.	8g\	-ri-	.	.	.	.	.	.	.	.	.	.	.
8BBn/	.	8Bn/	.	8g/	.	8dd\	.	8BB/	-ri-	.	8B\	-ri-	.	4g\	-tu	.	8dd\	-ri-	.	.	.	.	.	.	.	.
8BBn/J	.	8Bn/J	.	8g/J	.	8dd\J	.	8BB/	-tu	.	8B\	-tu	.	.	.	.	8dd\	-tu	.	.	.	.	.	.	.	.
*	*	*	*	*	*	*Xtremolo	*	*	*	*	*	*	*	*	*	*	*	*	*	*	*	*	*	*	*	*
=9	=9	=9	=9	=9	=9	=9	=9	=9	=9	=9	=9	=9	=9	=9	=9	=9	=9	=9	=9	=9	=9	=9	=9	=9	=9	=9
8C/L	.	8c\L	.	8g/L	.	8dd\L	.	4C/	S(an)-	.	4c\	S(an)-	.	4g\	San-	.	8dd\L	San-	.	4g/	.	4g\	.	2.ee-\	.	2.ryy
8C/	.	8c\	.	8g/	.	8ee-\J	.	.	.	.	.	.	.	.	.	.	8ee-\J	.	.	.	.	.	.	.	.	.
*	*	*	*	*	*	*tremolo	*	*	*	*	*	*	*	*	*	*	*	*	*	*	*	*	*	*	*	*
8C/	.	8c\	.	8g/	.	8ee-\L	.	2C/	-cto	.	2F/	-cto	.	2g\	-cto	.	2ee-\	-cto	.	4r	.	4r	.	.	.	.
8C/	.	8c\	.	8g/	.	8ee-\	.	.	.	.	.	.	.	.	.	.	.	.	.	.	.	.	.	.	.	.
8C/	.	8c\	.	8g/	.	8ee-\	.	.	.	.	.	.	.	.	.	.	.	.	.	4r	.	4r	.	.	.	.
8C/J	.	8c\J	.	8g/J	.	8ee-\J	.	.	.	.	.	.	.	.	.	.	.	.	.	.	.	.	.	.	.	.
=10	=10	=10	=10	=10	=10	=10	=10	=10	=10	=10	=10	=10	=10	=10	=10	=10	=10	=10	=10	=10	=10	=10	=10	=10	=10	=10
!	!	!	!	!	!	!	!	!	!	!	!	!	!	!	!	!	!	!	!	!	!	!LO:TX:a:t=1	!	!	!	!
8A-X\L	.	8A-X/L	.	8cc\L	.	8ff#X\L	.	8A-\	na-	.	8c\	na-	.	8f#X\	na-	.	8cc\	na-	.	2.r	.	2.r	.	2.cc\	.	2.ryy
8A-X\	.	8A-X/	.	8cc\	.	8ff#X\	.	8A-\	-tus	.	8c\	-tus	.	8f#\	-tus	.	8cc\	-tus	.	.	.	.	.	.	.	.
8A-X\	.	8A-X/	.	8cc\	.	8ff#X\	.	4A-\	ex	.	4c\	ex	.	4f#\	ex	.	4cc\	ex	.	.	.	.	.	.	.	.
8A-X\	.	8A-X/	.	8cc\	.	8ff#X\	.	.	.	.	.	.	.	.	.	.	.	.	.	.	.	.	.	.	.	.
8A-X\	.	8A-X/	.	8cc\	.	8ff#X\	.	4A-\	Ma-	.	4c\	Ma-	.	4f#\	Ma-	.	4cc\	Ma-	.	.	.	.	.	.	.	.
8A-X\J	.	8A-X/J	.	8cc\J	.	8ff#X\J	.	.	.	.	.	.	.	.	.	.	.	.	.	.	.	.	.	.	.	.
*Xtremolo	*	*Xtremolo	*	*	*	*Xtremolo	*	*	*	*	*	*	*	*	*	*	*	*	*	*	*	*	*	*	*	*
=11	=11	=11	=11	=11	=11	=11	=11	=11	=11	=11	=11	=11	=11	=11	=11	=11	=11	=11	=11	=11	=11	=11	=11	=11	=11	=11
4G\	.	4G/	.	8bn\L	.	(8ff\L	.	4G\	-ri-	.	4d\	-ri-	.	8f\L	-ri-	.	8cc\L	-ri-	.	4g/	.	4g\	.	8cc\L	.	2.ryy
.	.	.	.	8b\	.	8gg\)	.	.	.	.	.	.	.	8g\J	-a	.	8bn\J	-a	.	.	.	.	.	8bX\J	.	.
4GG/	.	4g\	.	8b\	.	8gg'\	.	4GG/	-a	.	4d\	-a	.	4g\	.	.	4b\	.	.	4g/	.	4g\	.	4b\	.	.
.	.	.	.	8b\	.	8gg'\	.	.	.	.	.	.	.	.	.	.	.	.	.	.	.	.	.	.	.	.
4r	.	4r	.	8b\	.	(8aa-X\	.	4r	.	.	4r	.	.	4r	.	.	4r	.	.	4r	.	4r	.	4r	.	.
.	.	.	.	8b\J	.	8gg\J)	.	.	.	.	.	.	.	.	.	.	.	.	.	.	.	.	.	.	.	.
*	*	*	*	*Xtremolo	*	*	*	*	*	*	*	*	*	*	*	*	*	*	*	*	*	*	*	*	*	*
=12	=12	=12	=12	=12	=12	=12	=12	=12	=12	=12	=12	=12	=12	=12	=12	=12	=12	=12	=12	=12	=12	=12	=12	=12	=12	=12
!	!	!	!	!	!	!	!	!	!	!	!	!	!	!	!	!	!	!	!	!	!	!LO:TX:a:t=1	!	!LO:TX:a:t=1.	!	!
2.r	.	2.r	.	(8an\L	.	(8ff#X\L	.	2.r	.	.	2.r	.	.	2.r	.	.	2.r	.	.	4r	.	2.r	.	2.r	.	2.ryy
.	.	.	.	8bn\)	.	8gg\)	.	.	.	.	.	.	.	.	.	.	.	.	.	.	.	.	.	.	.	.
.	.	.	.	8b\	.	8gg'\	.	.	.	.	.	.	.	.	.	.	.	.	.	2dd\yy	.	.	.	.	.	.
.	.	.	.	8b\	.	8gg'\	.	.	.	.	.	.	.	.	.	.	.	.	.	.	.	.	.	.	.	.
.	.	.	.	(8b\	.	(8gg\	.	.	.	.	.	.	.	.	.	.	.	.	.	.	.	.	.	.	.	.
.	.	.	.	8dd\J)	.	8ffn\J)	.	.	.	.	.	.	.	.	.	.	.	.	.	.	.	.	.	.	.	.
=13	=13	=13	=13	=13	=13	=13	=13	=13	=13	=13	=13	=13	=13	=13	=13	=13	=13	=13	=13	=13	=13	=13	=13	=13	=13	=13
*	*	*	*	*	*	*tremolo	*	*	*	*	*	*	*	*	*	*	*	*	*	*	*	*	*	*	*	*
4C/	.	4c\	.	8cc/L	.	8ee-X\L	.	8C/	ex	.	8c\	ex	.	8g\	ex	.	8cc\	ex	.	4g/	.	4g\	.	2.cc\	.	2.ryy
.	.	.	.	8g/	.	8ee-X\	.	8C/	Ma-	.	8c\	Ma-	.	8g\	Ma-	.	8cc\	Ma-	.	.	.	.	.	.	.	.
4E-\	.	4c\	.	8g/	.	8ee-X\	.	4E-\	-ri-	.	4c\	-ri-	.	4g\	-ri-	.	4cc\	-ri-	.	4g/	.	4g\	.	.	.	.
.	.	.	.	8g/	.	8ee-X\	.	.	.	.	.	.	.	.	.	.	.	.	.	.	.	.	.	.	.	.
4C/	.	4c\	.	8g/	.	8ee-X\	.	4C/	-a	.	4c\	-a	.	4g\	-a	.	4cc\	-a	.	4g/	.	4g\	.	.	.	.
.	.	.	.	8g/J	.	8ee-X\J	.	.	.	.	.	.	.	.	.	.	.	.	.	.	.	.	.	.	.	.
*	*	*	*	*	*	*Xtremolo	*	*	*	*	*	*	*	*	*	*	*	*	*	*	*	*	*	*	*	*
=14	=14	=14	=14	=14	=14	=14	=14	=14	=14	=14	=14	=14	=14	=14	=14	=14	=14	=14	=14	=14	=14	=14	=14	=14	=14	=14
.	.	.	.	.	.	8qqff/	.	.	.	.	.	.	.	.	.	.	.	.	.	.	.	.	.	.	.	.
4G\	.	4g\	.	4cc\	.	8ee-\L	.	8.G\	vir-	.	8c\	Vir-	.	8g\	Vir-	.	8cc\	Vir-	.	4g/	.	4g\	.	4cc\	.	2.ryy
.	.	.	.	.	.	16dd\L	.	.	.	.	8Bn\	-gi-	.	8g\	-gi-	.	8bn\	-gi-	.	.	.	.	.	.	.	.
.	.	.	.	.	.	16ee-\JJ	.	16GG/	-gi-	.	.	.	.	.	.	.	.	.	.	.	.	.	.	.	.	.
4GG/	.	4G/	.	4bn\	.	4dd\	.	4GG/	-ne	.	4B\	-ne	.	4g\	-ne	.	4b\	-ne	.	4g/	.	4g\	.	4bX\	.	.
8G`\L	.	8g\L	.	4r	.	4r	.	4r	.	.	4r	.	.	4r	.	.	4r	.	.	4r	.	4r	.	4r	.	.
8F`\J	.	8f\J	.	.	.	.	.	.	.	.	.	.	.	.	.	.	.	.	.	.	.	.	.	.	.	.
=15	=15	=15	=15	=15	=15	=15	=15	=15	=15	=15	=15	=15	=15	=15	=15	=15	=15	=15	=15	=15	=15	=15	=15	=15	=15	=15
!	!	!LO:TX:t=P:pp=pp:problem	!LO:DY:a	!LO:TX:t=P:p=p.:problem	!	!LO:TX:t=P:pp=pp:problem	!	!	!	!	!	!	!	!	!	!	!	!	!	!	!	!	!	!	!	!
!	!	!	!	!	!	!	!	!	!	!	!	!	!	!	!	!	!	!	!	!	!	!	!	!LO:TX:a:t=2.	!	!
4E-\	.	8.g\L	pp	8.b-X/L	p	2.bb-\	pp	0.r	.	.	0.r	.	.	0.r	.	.	0.r	.	.	1.r	.	1.r	.	1.r	.	2.ryy
.	.	16e-\Jk	.	16a-/Jk	.	.	.	.	.	.	.	.	.	.	.	.	.	.	.	.	.	.	.	.	.	.
4r	.	8G/L	.	8e-/L	.	.	.	.	.	.	.	.	.	.	.	.	.	.	.	.	.	.	.	.	.	.
.	.	8G/	.	8e-/	.	.	.	.	.	.	.	.	.	.	.	.	.	.	.	.	.	.	.	.	.	.
4r	.	8B-/	.	(8f/	.	.	.	.	.	.	.	.	.	.	.	.	.	.	.	.	.	.	.	.	.	.
.	.	8e-/J	.	8g/J)	.	.	.	.	.	.	.	.	.	.	.	.	.	.	.	.	.	.	.	.	.	.
=16	=16	=16	=16	=16	=16	=16	=16	=16	=16	=16	=16	=16	=16	=16	=16	=16	=16	=16	=16	=16	=16	=16	=16	=16	=16	=16
4BB-/	.	(8e-\L	.	(8g/L	.	2.bb-\	.	.	.	.	.	.	.	.	.	.	.	.	.	.	.	.	.	.	.	2.ryy
.	.	8d\)	.	8f/)	.	.	.	.	.	.	.	.	.	.	.	.	.	.	.	.	.	.	.	.	.	.
4r	.	8d\	.	8f/	.	.	.	.	.	.	.	.	.	.	.	.	.	.	.	.	.	.	.	.	.	.
.	.	8d\J	.	8f/	.	.	.	.	.	.	.	.	.	.	.	.	.	.	.	.	.	.	.	.	.	.
4r	.	(8e-\L	.	(8g/	.	.	.	.	.	.	.	.	.	.	.	.	.	.	.	.	.	.	.	.	.	.
.	.	8f\J)	.	8a-/J)	.	.	.	.	.	.	.	.	.	.	.	.	.	.	.	.	.	.	.	.	.	.
=17	=17	=17	=17	=17	=17	=17	=17	=17	=17	=17	=17	=17	=17	=17	=17	=17	=17	=17	=17	=17	=17	=17	=17	=17	=17	=17
!	!	!	!	!	!	!	!	!	!	!	!	!	!	!	!	!	!	!	!	!LO:TX:a:Bi:t=Solo	!	!	!	!	!	!
4E-\	.	4e-\	.	4g/	.	2.bb-\	.	.	.	.	.	.	.	.	.	.	.	.	.	8gg\L	.	8.b-\L	.	4.g/	.	2.ryy
.	.	.	.	.	.	.	.	.	.	.	.	.	.	.	.	.	.	.	.	8ee-\J	.	.	.	.	.	.
.	.	.	.	.	.	.	.	.	.	.	.	.	.	.	.	.	.	.	.	.	.	16g\Jk	.	.	.	.
!	!	!	!	!	!	!	!	!	!	!	!	!	!	!	!	!	!	!	!	!	!	!LO:TX:a:Bi:t=Solo	!	!	!	!
4r	.	4r	.	4r	.	.	.	.	.	.	.	.	.	.	.	.	.	.	.	8g/L	.	8e-\L	.	.	.	.
.	.	.	.	.	.	.	.	.	.	.	.	.	.	.	.	.	.	.	.	8g/	.	8e-\	.	(8g\L	.	.
4r	.	4r	.	4r	.	.	.	.	.	.	.	.	.	.	.	.	.	.	.	8b-/	.	8f\	.	8b-\	.	.
.	.	.	.	.	.	.	.	.	.	.	.	.	.	.	.	.	.	.	.	8ee-/J	.	8g\J	.	8ee-\J)	.	.
=18	=18	=18	=18	=18	=18	=18	=18	=18	=18	=18	=18	=18	=18	=18	=18	=18	=18	=18	=18	=18	=18	=18	=18	=18	=18	=18
4BB-/	.	4B-/	.	2.r	.	2.bb-\	.	.	.	.	.	.	.	.	.	.	.	.	.	8ee-\L	.	8g\L	.	(8ee-\L	.	2.ryy
.	.	.	.	.	.	.	.	.	.	.	.	.	.	.	.	.	.	.	.	8b-\	.	8f\J	.	8dd\	.	.
4r	.	4r	.	.	.	.	.	.	.	.	.	.	.	.	.	.	.	.	.	8b-\	.	8f\L	.	8dd\)	.	.
.	.	.	.	.	.	.	.	.	.	.	.	.	.	.	.	.	.	.	.	8b-\J	.	8f\	.	(8dd\	.	.
4r	.	4r	.	.	.	.	.	.	.	.	.	.	.	.	.	.	.	.	.	8ee-\L	.	8f\	.	8ee-\	.	.
.	.	.	.	.	.	.	.	.	.	.	.	.	.	.	.	.	.	.	.	8ff\J	.	8a-\J	.	8ff\J)	.	.
=19	=19	=19	=19	=19	=19	=19	=19	=19	=19	=19	=19	=19	=19	=19	=19	=19	=19	=19	=19	=19	=19	=19	=19	=19	=19	=19
4E-\	.	4e-\	.	4g/	.	8.bb-\L	.	2.r	.	.	2.r	.	.	2.r	.	.	2.r	.	.	4ee-\	.	4g 4e-\	.	4ee-\	.	2.ryy
.	.	.	.	.	.	16gg\Jk	.	.	.	.	.	.	.	.	.	.	.	.	.	.	.	.	.	.	.	.
4r	.	4E-/	.	4g/	.	8ee-\L	.	.	.	.	.	.	.	.	.	.	.	.	.	4r	.	4r	.	4r	.	.
.	.	.	.	.	.	8ee-\	.	.	.	.	.	.	.	.	.	.	.	.	.	.	.	.	.	.	.	.
4r	.	4r	.	4r	.	(8ee-\	.	.	.	.	.	.	.	.	.	.	.	.	.	4r	.	4r	.	4r	.	.
.	.	.	.	.	.	8dd\J)	.	.	.	.	.	.	.	.	.	.	.	.	.	.	.	.	.	.	.	.
=20	=20	=20	=20	=20	=20	=20	=20	=20	=20	=20	=20	=20	=20	=20	=20	=20	=20	=20	=20	=20	=20	=20	=20	=20	=20	=20
*tremolo	*	*	*	*tremolo	*	*tremolo	*	*	*	*	*	*	*	*	*	*	*	*	*	*	*	*	*	*	*	*
!	!	!	!	!	!	!	!	!	!	!	!	!	!	!	!	!	!	!	!	!	!	!LO:TX:a:t=1	!	!LO:TX:a:t=1.	!	!
!	!	!	!	!	!	!	!LO:DY:a	!	!	!	!	!	!	!	!	!	!LO:TX:t=P:problem=w źródle początek taktu niewidoczny - przedarcie karty	!	!	!	!	!	!	!	!	!
8E-\L	.	2.e-\	.	8g/L	.	8cc\L	p	2.E-\	et	.	2.c\	et	.	2.g\	et	.	2b-\yy	.	.	2.r	.	2.r	.	2.r	.	2.ryy
8E-\	.	.	.	8g/	.	8cc\	.	.	.	.	.	.	.	.	.	.	.	.	.	.	.	.	.	.	.	.
8E-\	.	.	.	8g/	.	8cc\	.	.	.	.	.	.	.	.	.	.	.	.	.	.	.	.	.	.	.	.
8E-\	.	.	.	8g/	.	8cc\J	.	.	.	.	.	.	.	.	.	.	.	.	.	.	.	.	.	.	.	.
*	*	*	*	*	*	*Xtremolo	*	*	*	*	*	*	*	*	*	*	*	*	*	*	*	*	*	*	*	*
8E-\	.	.	.	8g/	.	8b-/L	.	.	.	.	.	.	.	.	.	.	4b-X\	et	.	.	.	.	.	.	.	.
8E-\J	.	.	.	8g/J	.	8b-/J	.	.	.	.	.	.	.	.	.	.	.	.	.	.	.	.	.	.	.	.
=21	=21	=21	=21	=21	=21	=21	=21	=21	=21	=21	=21	=21	=21	=21	=21	=21	=21	=21	=21	=21	=21	=21	=21	=21	=21	=21
*	*	*tremolo	*	*	*	*tremolo	*	*	*	*	*	*	*	*	*	*	*	*	*	*	*	*	*	*	*	*
!	!	!LO:TX:t=P:problem=w źródle jeden takt wykreślony	!	!	!	!	!	!	!	!	!	!	!	!	!	!	!	!	!	!	!	!	!	!	!	!
8E-\L	.	8c\L	.	8f/L	.	8an/L	.	2E-\	ho-	.	2c\	ho-	.	2f\	ho-	.	2an\	ho-	.	2ff\	.	2f\	.	2cc\	.	2.ryy
8E-\	.	8c\	.	8f/	.	8an/	.	.	.	.	.	.	.	.	.	.	.	.	.	.	.	.	.	.	.	.
8E-\	.	8c\	.	8f/	.	8an/	.	.	.	.	.	.	.	.	.	.	.	.	.	.	.	.	.	.	.	.
8E-\J	.	8c\J	.	8f/	.	8an/J	.	.	.	.	.	.	.	.	.	.	.	.	.	.	.	.	.	.	.	.
*Xtremolo	*	*Xtremolo	*	*	*	*Xtremolo	*	*	*	*	*	*	*	*	*	*	*	*	*	*	*	*	*	*	*	*
8D\L	.	8d\L	.	8f/	.	8b-\L	.	4D\	-mo	.	4B-X\	-mo	.	4f\	-mo	.	4b-\	-mo	.	4b-/	.	4f\	.	8dd\L	.	.
8D\J	.	8B-\J	.	8f/J	.	8aa-X\J	.	.	.	.	.	.	.	.	.	.	.	.	.	.	.	.	.	8ff\J	.	.
*	*	*	*	*Xtremolo	*	*	*	*	*	*	*	*	*	*	*	*	*	*	*	*	*	*	*	*	*	*
=22	=22	=22	=22	=22	=22	=22	=22	=22	=22	=22	=22	=22	=22	=22	=22	=22	=22	=22	=22	=22	=22	=22	=22	=22	=22	=22
8E-\L	.	8B-/L	.	8g/L	.	16gg\LL	.	8E-\L	fac-	.	8B-\L	fac-	.	8g\L	fac-	.	8b-\L	fac-	.	4ee-\	.	8g\L	.	2ee-\	.	2.ryy
.	.	.	.	.	.	16ee-\	.	.	.	.	.	.	.	.	.	.	.	.	.	.	.	.	.	.	.	.
8A-\J	.	8c/J	.	8f/J	.	16cc\	.	8A-\J	.	.	8c\J	.	.	16a-X\L	.	.	16cc\L	.	.	.	.	8a-\J	.	.	.	.
.	.	.	.	.	.	16a-\JJ	.	.	.	.	.	.	.	(16f\JJ	.	.	16a-X\JJ	.	.	.	.	.	.	.	.	.
4B-\	.	4B-/	.	4e-/	.	4g/	.	4B-\	.	.	4B-\	.	.	4e-\)	.	.	4g/	.	.	4ee-\	.	4g\	.	.	.	.
4BB-/	.	4B-/	.	4d/	.	4fT/	.	4BB-/	-tus	.	4B-\	-tus	.	4d\	-tus	.	4f/	-tus	.	4b-/	.	4f\	.	4dd\	.	.
=23	=23	=23	=23	=23	=23	=23	=23	=23	=23	=23	=23	=23	=23	=23	=23	=23	=23	=23	=23	=23	=23	=23	=23	=23	=23	=23
!	!	!	!	!	!	!	!	!	!	!	!	!	!	!	!	!	!	!	!	!	!	!	!	!	!LO:DY:a	!
4E-\	.	4B-/	.	4e-/	.	4e-/	.	4E-\	est.	.	4B-\	e(st)	.	4e-\	est	.	4e-/	est	.	4g/	.	4e-\	.	4ee- 4cc\	f	2.ryy
4r	.	4r	.	4r	.	4r	.	4r	.	.	4B-\	Cru-	.	4r	.	.	4r	.	.	4r	.	4r	.	4r	.	.
4r	.	4r	.	4r	.	4r	.	4r	.	.	4B-\	-ci-	.	4r	.	.	4r	.	.	4r	.	4r	.	4r	.	.
=24	=24	=24	=24	=24	=24	=24	=24	=24	=24	=24	=24	=24	=24	=24	=24	=24	=24	=24	=24	=24	=24	=24	=24	=24	=24	=24
!	!	!	!	!	!	!	!	!	!	!	!	!	!	!	!	!	!	!	!	!LO:TX:a:t=4	!	!	!	!LO:TX:a:t=4.	!	!
4G\	.	4G/	.	8r	.	8r	.	0.r	.	.	2.Bn\	-fi-	.	0.r	.	.	0.r	.	.	0.r	.	0.r	.	0.r	.	2.ryy
!	!	!	!	!LO:TX:t=P:pp=pianis.:problem	!LO:DY:a	!	!	!	!	!	!	!	!	!	!	!	!	!	!	!	!	!	!	!	!	!
.	.	.	.	8d/L	pp	8ff\L	.	.	.	.	.	.	.	.	.	.	.	.	.	.	.	.	.	.	.	.
4r	.	4r	.	8d/	.	8ff\	.	.	.	.	.	.	.	.	.	.	.	.	.	.	.	.	.	.	.	.
.	.	.	.	8d/	.	8ff\	.	.	.	.	.	.	.	.	.	.	.	.	.	.	.	.	.	.	.	.
4r	.	4r	.	(8d/	.	(8ff\	.	.	.	.	.	.	.	.	.	.	.	.	.	.	.	.	.	.	.	.
.	.	.	.	8Bn/J)	.	8dd\J)	.	.	.	.	.	.	.	.	.	.	.	.	.	.	.	.	.	.	.	.
=25	=25	=25	=25	=25	=25	=25	=25	=25	=25	=25	=25	=25	=25	=25	=25	=25	=25	=25	=25	=25	=25	=25	=25	=25	=25	=25
4C/	.	4c\	.	8r	.	8r	.	.	.	.	2.c\	-xus	.	.	.	.	.	.	.	.	.	.	.	.	.	2.ryy
.	.	.	.	8g/L	.	8ee-\L	.	.	.	.	.	.	.	.	.	.	.	.	.	.	.	.	.	.	.	.
4r	.	4r	.	8g/	.	8ee-\	.	.	.	.	.	.	.	.	.	.	.	.	.	.	.	.	.	.	.	.
.	.	.	.	8g/	.	8ee-\	.	.	.	.	.	.	.	.	.	.	.	.	.	.	.	.	.	.	.	.
4r	.	4r	.	(8g/	.	(8ee-\	.	.	.	.	.	.	.	.	.	.	.	.	.	.	.	.	.	.	.	.
.	.	.	.	8e-/J)	.	8cc\J)	.	.	.	.	.	.	.	.	.	.	.	.	.	.	.	.	.	.	.	.
=26	=26	=26	=26	=26	=26	=26	=26	=26	=26	=26	=26	=26	=26	=26	=26	=26	=26	=26	=26	=26	=26	=26	=26	=26	=26	=26
4A-\	.	4A-/	.	8r	.	8r	.	.	.	.	8c\	et-	.	.	.	.	.	.	.	.	.	.	.	.	.	2.ryy
.	.	.	.	8e-/L	.	8ff#X'\L	.	.	.	.	8c\	-iam	.	.	.	.	.	.	.	.	.	.	.	.	.	.
4r	.	4r	.	8e-/	.	8ff#'\	.	.	.	.	4c\	.	.	.	.	.	.	.	.	.	.	.	.	.	.	.
.	.	.	.	8e-/	.	8ff#'\	.	.	.	.	.	.	.	.	.	.	.	.	.	.	.	.	.	.	.	.
4r	.	4r	.	(8e-/	.	8ff#'\	.	.	.	.	8e-\L	pro	.	.	.	.	.	.	.	.	.	.	.	.	.	.
.	.	.	.	8c/J)	.	8ff#'\J	.	.	.	.	8c\J	.	.	.	.	.	.	.	.	.	.	.	.	.	.	.
=27	=27	=27	=27	=27	=27	=27	=27	=27	=27	=27	=27	=27	=27	=27	=27	=27	=27	=27	=27	=27	=27	=27	=27	=27	=27	=27
4G\	.	4G/	.	8r	.	8r	.	.	.	.	4Bn\	no-	.	.	.	.	.	.	.	.	.	.	.	.	.	2.ryy
.	.	.	.	8Bn/L	.	8gg\L	.	.	.	.	.	.	.	.	.	.	.	.	.	.	.	.	.	.	.	.
4r	.	4r	.	8B/	.	8gg\	.	.	.	.	4G/	-bis	.	.	.	.	.	.	.	.	.	.	.	.	.	.
.	.	.	.	8B/	.	8gg\	.	.	.	.	.	.	.	.	.	.	.	.	.	.	.	.	.	.	.	.
4r	.	4r	.	8d/	.	(8bbn\	.	.	.	.	4r	.	.	.	.	.	.	.	.	.	.	.	.	.	.	.
.	.	.	.	8B/J	.	8gg\J)	.	.	.	.	.	.	.	.	.	.	.	.	.	.	.	.	.	.	.	.
=28	=28	=28	=28	=28	=28	=28	=28	=28	=28	=28	=28	=28	=28	=28	=28	=28	=28	=28	=28	=28	=28	=28	=28	=28	=28	=28
!	!	!	!	!	!	!	!	!LO:TX:t=P:p=po.:problem	!	!LO:DY:a	!	!	!	!	!	!	!	!	!	!	!	!	!	!LO:TX:t=P:problem=w źródle wysokość nuty korygowana, nad nutą litera "c"	!	!
4G\	.	4B-X/	.	8r	.	8r	.	2.G\	sub	p	2.d\	sub	.	2.f\	sub	.	2.bn\	sub	.	4g/	.	4g\	.	2.bX\	.	2.ryy
!	!	!	!	!	!	!LO:TX:t=P:problem=mixed beam	!	!	!	!	!	!	!	!	!	!	!	!	!	!	!	!	!	!	!	!
.	.	.	.	8Bn/L	.	8g/L	.	.	.	.	.	.	.	.	.	.	.	.	.	.	.	.	.	.	.	.
4r	.	4r	.	8d/	.	8ff\	.	.	.	.	.	.	.	.	.	.	.	.	.	4r	.	4r	.	.	.	.
.	.	.	.	8d/	.	8ff\	.	.	.	.	.	.	.	.	.	.	.	.	.	.	.	.	.	.	.	.
4r	.	4r	.	(8d/	.	(8ff\	.	.	.	.	.	.	.	.	.	.	.	.	.	4r	.	4r	.	.	.	.
.	.	.	.	8B/J)	.	8dd\J)	.	.	.	.	.	.	.	.	.	.	.	.	.	.	.	.	.	.	.	.
=29	=29	=29	=29	=29	=29	=29	=29	=29	=29	=29	=29	=29	=29	=29	=29	=29	=29	=29	=29	=29	=29	=29	=29	=29	=29	=29
4C/	.	4c\	.	8r	.	8r	.	2C/	Pon-	.	2c\	Pon-	.	2e-\	Pon-	.	2cc\	pon-	.	4g/	.	4g\	.	2.cc\	.	2.ryy
.	.	.	.	8g/L	.	8ee-\L	.	.	.	.	.	.	.	.	.	.	.	.	.	.	.	.	.	.	.	.
4r	.	4r	.	8g/	.	8ee-\	.	.	.	.	.	.	.	.	.	.	.	.	.	4r	.	4r	.	.	.	.
.	.	.	.	8g/	.	8ee-\	.	.	.	.	.	.	.	.	.	.	.	.	.	.	.	.	.	.	.	.
4r	.	4r	.	(8g/	.	(8ee-\	.	4C/	-ti-	.	4c\	-ti-	.	4e-\	-ti-	.	4cc\	-ti-	.	4r	.	4r	.	.	.	.
.	.	.	.	8e-/J)	.	8cc\J)	.	.	.	.	.	.	.	.	.	.	.	.	.	.	.	.	.	.	.	.
=30	=30	=30	=30	=30	=30	=30	=30	=30	=30	=30	=30	=30	=30	=30	=30	=30	=30	=30	=30	=30	=30	=30	=30	=30	=30	=30
4G\	.	4f\	.	8r	.	8r	.	2G\	-o	.	2d\	-o	.	2f\	-o	.	2bn\	-o	.	4g/	.	4g\	.	2.f/	.	2.ryy
.	.	.	.	8d/L	.	8bn\L	.	.	.	.	.	.	.	.	.	.	.	.	.	.	.	.	.	.	.	.
4r	.	4r	.	8d/	.	8b\	.	.	.	.	.	.	.	.	.	.	.	.	.	4r	.	4r	.	.	.	.
.	.	.	.	8d/	.	8b\	.	.	.	.	.	.	.	.	.	.	.	.	.	.	.	.	.	.	.	.
4r	.	4r	.	(8f/	.	(8dd\	.	4G\	Pi-	.	4G/	Pi-	.	4f\	Pi-	.	4b\	Pi-	.	4r	.	4r	.	.	.	.
.	.	.	.	8d/J)	.	8b\J)	.	.	.	.	.	.	.	.	.	.	.	.	.	.	.	.	.	.	.	.
=31	=31	=31	=31	=31	=31	=31	=31	=31	=31	=31	=31	=31	=31	=31	=31	=31	=31	=31	=31	=31	=31	=31	=31	=31	=31	=31
4C/	.	4e-\	.	8r	.	8r	.	2c\	-la-	.	2G/	-la-	.	2e-\	-la-	.	2cc\	-la-	.	4g/	.	4g\	.	2.e-/	.	2.ryy
.	.	.	.	8e-/L	.	8cc\L	.	.	.	.	.	.	.	.	.	.	.	.	.	.	.	.	.	.	.	.
4r	.	4r	.	8e-/	.	8cc\	.	.	.	.	.	.	.	.	.	.	.	.	.	4r	.	4r	.	.	.	.
.	.	.	.	8e-/	.	8cc\	.	.	.	.	.	.	.	.	.	.	.	.	.	.	.	.	.	.	.	.
4r	.	4r	.	8g/	.	(8ee-\	.	4C/	-to	.	4G/	-to	.	4e-\	-to	.	4cc\	-to	.	4r	.	4r	.	.	.	.
.	.	.	.	8e-/J	.	8cc\J)	.	.	.	.	.	.	.	.	.	.	.	.	.	.	.	.	.	.	.	.
=32	=32	=32	=32	=32	=32	=32	=32	=32	=32	=32	=32	=32	=32	=32	=32	=32	=32	=32	=32	=32	=32	=32	=32	=32	=32	=32
!	!	!	!	!	!	!	!	!	!	!	!	!	!	!	!	!	!	!	!	!	!	!LO:TX:a:t=1	!	!	!	!
4F\	.	4f\	.	8r	.	8r	.	2F\	pas-	.	2d\	pas-	.	2a-X\	pas-	.	2dd\	Pas-	.	2.r	.	2.r	.	2.a-\	.	2.ryy
.	.	.	.	8a-X/L	.	8dd\L	.	.	.	.	.	.	.	.	.	.	.	.	.	.	.	.	.	.	.	.
4r	.	4r	.	8a-/	.	8dd\	.	.	.	.	.	.	.	.	.	.	.	.	.	.	.	.	.	.	.	.
.	.	.	.	8a-/J	.	8ff\	.	.	.	.	.	.	.	.	.	.	.	.	.	.	.	.	.	.	.	.
4r	.	4r	.	4a-/	.	(8aa-\	.	4F\	-sus	.	4d\	-sus	.	4a-\	-sus	.	4cc\	-sus	.	.	.	.	.	.	.	.
.	.	.	.	.	.	8cc\J)	.	.	.	.	.	.	.	.	.	.	.	.	.	.	.	.	.	.	.	.
=33	=33	=33	=33	=33	=33	=33	=33	=33	=33	=33	=33	=33	=33	=33	=33	=33	=33	=33	=33	=33	=33	=33	=33	=33	=33	=33
4G\	.	4g\	.	8r	.	8r	.	2G\	et	.	2d\	et	.	2g\	et	.	2bn\	est	.	4g/	.	4g\	.	2bX\	.	2.ryy
!	!	!	!	!	!	!LO:TX:t=P:problem=mixed beam	!	!	!	!	!	!	!	!	!	!	!	!	!	!	!	!	!	!	!	!
.	.	.	.	8f/L	.	8bn\L	.	.	.	.	.	.	.	.	.	.	.	.	.	.	.	.	.	.	.	.
4r	.	4r	.	8f/	.	8b\	.	.	.	.	.	.	.	.	.	.	.	.	.	4r	.	4r	.	.	.	.
.	.	.	.	8f/	.	8b\	.	.	.	.	.	.	.	.	.	.	.	.	.	.	.	.	.	.	.	.
4r	.	4r	.	(8e-/	.	(8cc\	.	4G\	se-	.	4e-\	se-	.	4g\	se-	.	4cc\	se-	.	4r	.	4r	.	4cc\	.	.
.	.	.	.	8c/J)	.	8e-/J)	.	.	.	.	.	.	.	.	.	.	.	.	.	.	.	.	.	.	.	.
=34	=34	=34	=34	=34	=34	=34	=34	=34	=34	=34	=34	=34	=34	=34	=34	=34	=34	=34	=34	=34	=34	=34	=34	=34	=34	=34
4G\	.	4G/	.	8r	.	8r	.	2G\	-pul-	.	2d\	-pul-	.	2g\	-pul-	.	2cc\	-pul-	.	4g/	.	4g\	.	2cc\	.	2.ryy
!	!	!	!	!	!	!LO:TX:t=P:problem=mixed beam	!	!	!	!	!	!	!	!	!	!	!	!	!	!	!	!	!	!	!	!
.	.	.	.	8d/L	.	8d/L	.	.	.	.	.	.	.	.	.	.	.	.	.	.	.	.	.	.	.	.
4r	.	4r	.	8d/	.	8cc\	.	.	.	.	.	.	.	.	.	.	.	.	.	4r	.	4r	.	.	.	.
.	.	.	.	8d/	.	8cc\	.	.	.	.	.	.	.	.	.	.	.	.	.	.	.	.	.	.	.	.
4r	.	4r	.	8d/	.	8cc\	.	4G\	-tus	.	4d\	-tus	.	4g\	-tus	.	4bn\	-tus	.	4r	.	4r	.	4b-\	.	.
.	.	.	.	8d/J	.	8bn\J	.	.	.	.	.	.	.	.	.	.	.	.	.	.	.	.	.	.	.	.
=35	=35	=35	=35	=35	=35	=35	=35	=35	=35	=35	=35	=35	=35	=35	=35	=35	=35	=35	=35	=35	=35	=35	=35	=35	=35	=35
4C/	.	4c\	.	4e-/	.	4cc\	.	4C/	est	.	4c\	e(st)	.	4g\	est	.	4cc\	e(st)	.	4g/	.	4g\	.	4cc\	.	2.ryy
4r	.	4c\	.	8r	.	8r	.	4r	.	.	4r	.	.	4r	.	.	4r	.	.	4r	.	4r	.	4r	.	.
!	!	!	!	!	!	!	!LO:DY:a	!	!	!	!	!	!	!	!	!	!	!	!	!	!	!	!	!	!	!
.	.	.	.	8en/L	.	8cc\L	pp	.	.	.	.	.	.	.	.	.	.	.	.	.	.	.	.	.	.	.
4r	.	4r	.	(8e/	.	8cc\	.	4r	.	.	4r	.	.	4r	.	.	4r	.	.	4r	.	4r	.	4r	.	.
.	.	.	.	8g/J)	.	8b-X\J	.	.	.	.	.	.	.	.	.	.	.	.	.	.	.	.	.	.	.	.
=36	=36	=36	=36	=36	=36	=36	=36	=36	=36	=36	=36	=36	=36	=36	=36	=36	=36	=36	=36	=36	=36	=36	=36	=36	=36	=36
*	*	*	*	*	*	*	*	*	*	*	*	*	*	*	*	*	*	*ij	*	*	*	*	*	*	*	*
!LO:TX:b:i:t=pedal	!	!	!	!LO:TX:t=P:pp=pianis:problem	!LO:DY:a	!	!	!	!	!	!	!	!LO:DY:a	!	!	!	!	!	!	!	!	!	!	!	!	!
4C/	.	(4c~\	.	4f/	pp	4a-/	.	4C/	se-	.	4c\	se-	pp	4f\	se-	.	4a-X\	se-	.	1.r	.	1.r	.	4ff\	.	2.ryy
4C/	.	4c~\	.	4f/	.	4a-/	.	4C/	-pul-	.	4c\	-pul-	.	4f\	-pul-	.	4a-\	-pul-	.	.	.	.	.	4ff\	.	.
4C/	.	4c~\)	.	4f/	.	4a-/	.	4C/	-tus	.	4c\	-tus	.	4f\	-tus	.	4a-\	-tus	.	.	.	.	.	4ff\	.	.
=37	=37	=37	=37	=37	=37	=37	=37	=37	=37	=37	=37	=37	=37	=37	=37	=37	=37	=37	=37	=37	=37	=37	=37	=37	=37	=37
2C;/	.	2c;\	.	2en;/	.	2g;/	.	2C;/	est	.	2c\	e(st).	.	2en;\	est.	.	2g;\	est	.	.	.	.	.	4eeX;\	.	2.ryy
.	.	.	.	.	.	.	.	.	.	.	.	.	.	.	.	.	.	.	.	.	.	.	.	4r	.	.
*	*	*	*	*	*	*	*	*	*	*	*	*	*	*	*	*	*	*Xij	*	*	*	*	*	*	*	*
!	!	!	!	!LO:TX:b:Bi:t=Et resurexit Seque	!	!	!	!	!	!	!	!	!	!	!	!	!	!	!	!	!	!	!	!	!	!
4r	.	4r	.	4r	.	4r	.	4r	.	.	4r	.	.	4r	.	.	4r	.	.	.	.	.	.	4r	.	.
==	==	==	==	==	==	==	==	==	==	==	==	==	==	==	==	==	==	==	==	==	==	==	==	==	==	==
*-	*-	*-	*-	*-	*-	*-	*-	*-	*-	*-	*-	*-	*-	*-	*-	*-	*-	*-	*-	*-	*-	*-	*-	*-	*-	*-
!!!system-decoration: [(s1,s2)][(s3,s4)][(s5,s6,s7,s8)][(s9,s10,s11)][(s12)]
!!!RDF**kern: > = above
!!!RDF**kern: < = below
!!!RDF**dynam: > = "dim.", fontstyle= "bold-italic"
!!!RDF**dynam: < = "Cres:", fontstyle= "bold-italic"
!!!RDF**kern: | = vertical stroke
!!!RDF**kern: N = linked
!!!RDF**kern: i = editorial accidental
!!!RDF**kern: l = terminal long
!!!ENC: Mateusz Solarz
!!!END: 2020-09-29
!!!EED: Wojciech Jakubiak-Danek
!!!EEV: 2022-02-02
